src/assets/outline/BatteryDisable.svg

<svg width="24" height="24" viewBox="0 0 24 24"  xmlns="http://www.w3.org/2000/svg">
<path d="M20.5 15.25C20.09 15.25 19.75 14.91 19.75 14.5C19.75 14.09 20.09 13.75 20.5 13.75C21.09 13.75 21.22 13.66 21.23 13.66C21.25 13.6 21.25 13.25 21.25 13V11C21.25 10.75 21.25 10.41 21.21 10.32C21.2 10.33 21.05 10.25 20.5 10.25C20.09 10.25 19.75 9.91 19.75 9.5C19.75 9.09 20.09 8.75 20.5 8.75C22.58 8.75 22.75 9.77 22.75 11V13C22.75 14.23 22.58 15.25 20.5 15.25Z" />
<path d="M3.99991 22.2504C3.85991 22.2504 3.71991 22.2104 3.59991 22.1304C3.24991 21.9104 3.13991 21.4504 3.36991 21.1004L15.3699 2.10036C15.5899 1.75036 16.0599 1.65036 16.3999 1.87036C16.7499 2.09036 16.8599 2.55036 16.6299 2.90036L4.62991 21.9004C4.48991 22.1304 4.24991 22.2504 3.99991 22.2504Z" />
<path d="M5.39 19.67C5.36 19.67 5.33 19.67 5.31 19.67C1.91 19.29 1.25 17.31 1.25 14V10C1.25 5.59 2.59 4.25 7 4.25C7.41 4.25 7.75 4.59 7.75 5C7.75 5.41 7.41 5.75 7 5.75C3.43 5.75 2.75 6.43 2.75 10V14C2.75 17.32 3.43 17.95 5.47 18.18C5.88 18.23 6.18 18.6 6.13 19.01C6.09 19.39 5.76 19.67 5.39 19.67Z" />
<path d="M13 19.7497C12.59 19.7497 12.25 19.4097 12.25 18.9997C12.25 18.5897 12.59 18.2497 13 18.2497C16.57 18.2497 17.25 17.5697 17.25 13.9997V9.99971C17.25 6.68971 16.57 6.04971 14.54 5.81971C14.13 5.76971 13.83 5.39971 13.88 4.98971C13.93 4.57971 14.29 4.26971 14.71 4.32971C18.09 4.70971 18.75 6.69971 18.75 9.99971V13.9997C18.75 18.4097 17.41 19.7497 13 19.7497Z" />
</svg>

<?xml version="1.0" encoding="UTF-8"?>
<svg width="24" height="24" viewBox="0 0 24 24" xmlns="http://www.w3.org/2000/svg">
 <path d="m20.5 15.25c-0.41 0-0.75-0.34-0.75-0.75s0.34-0.75 0.75-0.75c0.59 0 0.72-0.09 0.73-0.09 0.02-0.06 0.02-0.41 0.02-0.66v-2c0-0.25 0-0.59-0.04-0.68-0.01 0.01-0.16-0.07-0.71-0.07-0.41 0-0.75-0.34-0.75-0.75s0.34-0.75 0.75-0.75c2.08 0 2.25 1.02 2.25 2.25v2c0 1.23-0.17 2.25-2.25 2.25z"/>
 <path d="m3.9999 22.25c-0.14 0-0.28-0.04-0.4-0.12-0.35-0.22-0.46-0.68-0.23-1.03l12-19c0.22-0.35 0.69-0.45 1.03-0.23 0.35 0.22 0.46 0.68 0.23 1.03l-12 19c-0.14 0.23-0.38 0.35-0.63 0.35z"/>
 <path d="m5.39 19.67h-0.08c-3.4-0.38-4.06-2.36-4.06-5.67v-4c0-4.41 1.34-5.75 5.75-5.75 0.41 0 0.75 0.34 0.75 0.75s-0.34 0.75-0.75 0.75c-3.57 0-4.25 0.68-4.25 4.25v4c0 3.32 0.68 3.95 2.72 4.18 0.41 0.05 0.71 0.42 0.66 0.83-0.04 0.38-0.37 0.66-0.74 0.66z"/>
 <path d="m13 19.75c-0.41 0-0.75-0.34-0.75-0.75s0.34-0.75 0.75-0.75c3.57 0 4.25-0.68 4.25-4.25v-4c0-3.31-0.68-3.95-2.71-4.18-0.41-0.05-0.71-0.42-0.66-0.83s0.41-0.72 0.83-0.66c3.38 0.38 4.04 2.37 4.04 5.67v4c0 4.41-1.34 5.75-5.75 5.75z"/>
</svg>
